src/asset/image/sparegris.svg

<svg width="20" height="20" viewBox="0 0 20 20" fill="none" xmlns="http://www.w3.org/2000/svg">
<path fill-rule="evenodd" clip-rule="evenodd" d="M18.8117 8.7998C19.0325 8.7998 19.2117 8.979 19.2117 9.1998C19.2117 10.1726 18.5125 10.9838 17.5901 11.1614C17.4437 13.519 15.8829 15.559 13.6117 16.6798V19.1998C13.6117 19.4206 13.4325 19.5998 13.2117 19.5998C12.9909 19.5998 12.8117 19.4206 12.8117 19.1998V17.0278C11.8309 17.3934 10.7493 17.5998 9.61172 17.5998C8.48292 17.5998 7.40052 17.3934 6.41172 17.027V19.1998C6.41172 19.4206 6.23252 19.5998 6.01172 19.5998C5.79092 19.5998 5.61172 19.4206 5.61172 19.1998V16.6758C4.19332 15.9782 3.02692 14.9254 2.32372 13.5998H0.411719C0.190919 13.5998 0.0117188 13.4206 0.0117188 13.1998V9.99981C0.0117188 9.77901 0.190919 9.5998 0.411719 9.5998H1.73652C2.08532 7.9462 3.15972 6.4462 4.73892 5.4142C4.58132 4.7934 4.17252 4.2486 3.61172 3.9238C3.48772 3.8526 3.41172 3.7206 3.41172 3.5774C3.41172 3.4342 3.48852 3.3022 3.61172 3.231C4.10132 2.9494 4.65412 2.7998 5.21172 2.7998C6.26212 2.7998 7.24372 3.3198 7.83812 4.1758C8.43572 4.059 9.03092 3.9998 9.61172 3.9998C13.8381 3.9998 17.3005 6.8022 17.5837 10.3342C18.0629 10.1774 18.4117 9.731 18.4117 9.1998C18.4117 8.979 18.5909 8.7998 18.8117 8.7998ZM2.93012 13.0262C4.03252 15.3182 6.65572 16.7998 9.61172 16.7998C13.5813 16.7998 16.8117 14.1086 16.8117 10.7998C16.8117 6.98141 12.4701 3.9486 7.73572 5.01501C7.56292 5.05501 7.38692 4.97421 7.29972 4.8214C6.77412 3.8902 5.64132 3.4054 4.60852 3.6782C5.12852 4.17181 5.47812 4.83501 5.57972 5.55101C5.60132 5.70941 5.52772 5.86621 5.39092 5.94941C3.77572 6.92621 2.71012 8.42461 2.46692 10.059C2.43732 10.2542 2.26932 10.3998 2.07092 10.3998H0.811719V12.7998H2.56932C2.72292 12.7998 2.86292 12.8878 2.93012 13.0262ZM9.18452 6.015C8.96452 6.0302 8.79732 6.2206 8.81172 6.4406C8.82692 6.6606 9.01492 6.819 9.23732 6.8134C10.5781 6.7238 11.9013 7.1174 12.9709 7.9198C13.0429 7.9734 13.1269 7.9998 13.2109 7.9998C13.3325 7.9998 13.4525 7.9446 13.5309 7.8398C13.6637 7.663 13.6277 7.4126 13.4509 7.2798C12.2285 6.3622 10.7117 5.915 9.18452 6.015ZM5.61172 9.5998C5.61172 10.0416 5.25355 10.3998 4.81172 10.3998C4.36989 10.3998 4.01172 10.0416 4.01172 9.5998C4.01172 9.15798 4.36989 8.7998 4.81172 8.7998C5.25355 8.7998 5.61172 9.15798 5.61172 9.5998Z" fill="#3E3832"/>
</svg>

<svg width="20" height="20" viewBox="0 0 20 20" fill="none" xmlns="http://www.w3.org/2000/svg"><path fill-rule="evenodd" clip-rule="evenodd" d="M18.812 8.8c.22 0 .4.179.4.4 0 .973-.7 1.784-1.622 1.961-.146 2.358-1.707 4.398-3.978 5.519v2.52a.4.4 0 01-.8 0v-2.172a9.16 9.16 0 01-3.2.572 9.212 9.212 0 01-3.2-.573V19.2a.4.4 0 01-.8 0v-2.524c-1.419-.698-2.585-1.75-3.288-3.076H.412a.4.4 0 01-.4-.4V10c0-.221.179-.4.4-.4h1.325c.348-1.654 1.423-3.154 3.002-4.186a2.421 2.421 0 00-1.127-1.49.399.399 0 010-.693 3.215 3.215 0 011.6-.431c1.05 0 2.032.52 2.626 1.376A9.262 9.262 0 019.612 4c4.226 0 7.688 2.802 7.972 6.334.479-.157.828-.603.828-1.134 0-.221.179-.4.4-.4zM2.93 13.026C4.033 15.318 6.656 16.8 9.612 16.8c3.97 0 7.2-2.691 7.2-6 0-3.819-4.342-6.851-9.076-5.785a.4.4 0 01-.436-.194c-.526-.93-1.659-1.416-2.691-1.143.52.494.87 1.157.97 1.873a.402.402 0 01-.188.398c-1.615.977-2.68 2.476-2.924 4.11a.401.401 0 01-.396.34H.81v2.4H2.57c.154 0 .294.089.361.227zm6.255-7.011a.401.401 0 00-.373.426c.015.22.203.378.425.372a5.596 5.596 0 013.734 1.107.4.4 0 00.48-.64 6.413 6.413 0 00-4.266-1.265zM5.612 9.6a.8.8 0 11-1.6 0 .8.8 0 011.6 0z" fill="#3E3832"/></svg>
